G92 E0
G1 X175.799 Y90.500 F6000.000
G1 E2.00000 F900.00000
G3 X175.806 Y90.575 E2.25297 F1500.000 I1.701 J0.000; generated from 33 segments
G1 X175.515 Y90.324 F6000.000
G1 X174.712 Y90.608 F6000.000
G3 X174.756 Y91.046 E2.66148 F1500.000 I2.788 J-0.107; generated from 33 segments
G1 X174.720 Y90.682 E2.67020
G1 X174.800 Y90.545 F6000.000
G1 X175.255 Y90.554 F6000.000
G3 X175.263 Y90.629 E3.38046 F600.000 I2.246 J-0.054; generated from 33 segments
G1 E1.38046 F900.00000
G92 E0
G1 X177.500 Y72.655 E4117.71966
G0 F9000 X177.500 Y72.152
;TYPE:WALL-OUTER
G2 X177.500 Y72.152 E4117.95045 F3000.000 I-0.000 J-1.651; generated from 32 segments
G0 F9000 X177.498 Y73.349
