G92 E0
G1 Z0.350 F6000.000
G1 X55.420 Y79.825 F6000.000
G1 E2.00000 F900.00000
G1 X56.834 Y78.880 E2.04407 F1800.000
G1 X57.611 Y78.558 E2.06588
G1 X59.072 Y78.267 E2.10448
G1 X59.490 Y78.226 E2.11537
G1 X185.510 Y78.226 E5.38141
G1 X185.928 Y78.267 E5.39229
G3 X191.774 Y84.491 E5.63400 F1800.000 I-0.562 J6.373; generated from 8 segments
G1 X191.774 Y190.509 E8.38167
G1 X191.733 Y190.926 E8.39253
G3 X185.509 Y196.774 E8.63427 F1800.000 I-6.372 J-0.559; generated from 8 segments
G1 X59.491 Y196.774 E11.90029
G1 X59.074 Y196.733 E11.91113
G3 X53.226 Y190.510 E12.15287 F1800.000 I0.561 J-6.372; generated from 8 segments
G1 X53.226 Y84.490 E14.90058
G1 X53.267 Y84.072 E14.91146
G1 X53.558 Y82.611 E14.95006
G1 X53.880 Y81.834 E14.97188
G1 X54.825 Y80.420 E15.01595
G1 X55.367 Y79.878 E15.03582
G1 X55.685 Y80.196 F6000.000
G1 X57.047 Y79.279 E15.07837 F1800.000